twotone/svg/settings_system_daydream.svg

<svg xmlns="http://www.w3.org/2000/svg" width="24" height="24"><path fill="none" d="M0 0h24v24H0V0z"/><g fill="currentColor"><path opacity=".3" d="M9 15h6.5c.83 0 1.5-.67 1.5-1.5s-.67-1.5-1.5-1.5h-.87l-.17-.86A2.496 2.496 0 0 0 12 9c-.96 0-1.84.57-2.26 1.45l-.27.57h-.73C7.74 11.15 7 11.99 7 13c0 1.1.9 2 2 2z"/><path d="M9 17h6.5c1.93 0 3.5-1.57 3.5-3.5 0-1.66-1.16-3.05-2.74-3.41C15.66 8.28 13.95 7 12 7c-1.53 0-2.96.8-3.78 2.08A3.98 3.98 0 0 0 5 13c0 2.21 1.79 4 4 4zm-.26-5.98h.74l.27-.57C10.16 9.57 11.04 9 12 9c1.23 0 2.29.92 2.46 2.14l.17.86h.87c.83 0 1.5.67 1.5 1.5s-.67 1.5-1.5 1.5H9c-1.1 0-2-.9-2-2 0-1.01.74-1.85 1.74-1.98z"/><path d="M21 3H3c-1.1 0-2 .9-2 2v14c0 1.1.9 2 2 2h18c1.1 0 2-.9 2-2V5c0-1.1-.9-2-2-2zm0 16.01H3V4.99h18v14.02z"/></g></svg>

<?xml version="1.0" encoding="utf-8"?>
<!-- Generator: Adobe Illustrator 19.1.0, SVG Export Plug-In . SVG Version: 6.00 Build 0)  -->
<svg version="1.1" xmlns="http://www.w3.org/2000/svg" xmlns:xlink="http://www.w3.org/1999/xlink" x="0px" y="0px" width="24px"
	 height="24px" viewBox="0 0 24 24" enable-background="new 0 0 24 24" xml:space="preserve">
<g id="Bounding_Boxes">
	<g id="ui_x5F_spec_x5F_header_copy_3">
	</g>
	<path fill="none" d="M0,0h24v24H0V0z"/>
</g>
<g id="Duotone" fill="currentColor">
	<g id="ui_x5F_spec_x5F_header_copy_2">
	</g>
	<g>
		<path opacity="0.3" d="M9,15h6.5c0.83,0,1.5-0.67,1.5-1.5S16.33,12,15.5,12h-0.87l-0.17-0.86C14.29,9.92,13.23,9,12,9
			c-0.96,0-1.84,0.57-2.26,1.45l-0.27,0.57H8.74C7.74,11.15,7,11.99,7,13C7,14.1,7.9,15,9,15z"/>
		<path d="M9,17h6.5c1.93,0,3.5-1.57,3.5-3.5c0-1.66-1.16-3.05-2.74-3.41C15.66,8.28,13.95,7,12,7c-1.53,0-2.96,0.8-3.78,2.08
			C6.36,9.44,5,11.07,5,13C5,15.21,6.79,17,9,17z M8.74,11.02h0.74l0.27-0.57C10.16,9.57,11.04,9,12,9c1.23,0,2.29,0.92,2.46,2.14
			L14.63,12h0.87c0.83,0,1.5,0.67,1.5,1.5S16.33,15,15.5,15H9c-1.1,0-2-0.9-2-2C7,11.99,7.74,11.15,8.74,11.02z"/>
		<path d="M21,3H3C1.9,3,1,3.9,1,5v14c0,1.1,0.9,2,2,2h18c1.1,0,2-0.9,2-2V5C23,3.9,22.1,3,21,3z M21,19.01H3V4.99h18V19.01z"/>
	</g>
</g>
</svg>
